X:28
T:Passacaglia in G minor (HWV 432)
C:Handel, G.F.
M:3/4
L:1/8
Q:1/4=60
K:Gmin
|:G2|d4 cd|B2 AG F2|G4 AB|c2 BA G2|
F4 GA|B2 AG F2|G2 AB cd|G4:|

